packages/ffe-icons/icons/open/400/lg/stream.svg

<svg xmlns="http://www.w3.org/2000/svg" height="40" viewBox="0 -960 960 960" width="40"><path d="M139.999-420.001q-24.333 0-42.166-17.833T80-480q0-24.333 17.833-42.166T140-539.999q24.333 0 42.167 17.833 17.833 17.833 17.833 42.166t-17.833 42.166q-17.834 17.833-42.167 17.833Zm47.334 184.002 126-126.001q9.667-9.666 23.333-9.333 13.667.333 23.334 10 9.666 9.667 9.666 23.667 0 13.999-9.666 23.666L233.999-188q-9.666 9.667-23.333 9.334-13.666-.334-23.333-10-9.667-9.667-9.667-23.667 0-14 9.667-23.666ZM314-600.667 188-726.001q-9.667-9.666-9.334-23.333.334-13.666 10-23.333 9.667-9.667 23.667-9.667 14 0 23.666 9.667l125.334 125.334Q371-637.667 371-624q0 13.666-9.667 23.333Q351.666-591 337.666-591q-13.999 0-23.666-9.667ZM480-80q-24.333 0-42.166-17.833T420.001-140q0-24.333 17.833-42.167 17.833-17.833 42.166-17.833t42.166 17.833q17.833 17.834 17.833 42.167 0 24.333-17.833 42.166T480-80Zm0-680.001q-24.333 0-42.166-17.833-17.833-17.834-17.833-42.167 0-24.333 17.833-42.166T480-880q24.333 0 42.166 17.833t17.833 42.166q0 24.333-17.833 42.167-17.833 17.833-42.166 17.833ZM599.334-648l126-125.334q9.667-9.666 23.166-9.5 13.5.167 23.5 10.167Q781.667-763 781.667-749q0 13.999-9.667 23.666L646.333-599.667q-10 10-23.499 9.667-13.5-.334-23.5-10.334-9.667-10-9.834-23.833Q589.334-638 599.334-648Zm126 458.667-126-125.334Q589.667-324.333 590-338q.334-13.666 10-23.333Q609.667-371 623.667-371q14 0 23.666 9.667l125.334 125.334q9.667 9.666 9.667 23.333 0 13.666-9.667 23.333Q763-179.666 749-179.666q-13.999 0-23.666-9.667Zm94.667-230.668q-24.333 0-42.167-17.833-17.833-17.833-17.833-42.166t17.833-42.166q17.834-17.833 42.167-17.833 24.333 0 42.166 17.833T880-480q0 24.333-17.833 42.166t-42.166 17.833Z"/></svg>

<svg xmlns="http://www.w3.org/2000/svg" viewBox="0 -960 960 960" width="32" height="32"><path d="M140-420q-24.33 0-42.17-17.83Q80-455.67 80-480q0-24.33 17.83-42.17Q115.67-540 140-540q24.33 0 42.17 17.83Q200-504.33 200-480q0 24.33-17.83 42.17Q164.33-420 140-420Zm47.33 184 126-126q9.67-9.67 23.34-9.33 13.66.33 23.33 10 9.67 9.66 9.67 23.66T360-314L234-188q-9.67 9.67-23.33 9.33-13.67-.33-23.34-10-9.66-9.66-9.66-23.66t9.66-23.67ZM314-600.67 188-726q-9.67-9.67-9.33-23.33.33-13.67 10-23.34 9.66-9.66 23.66-9.66t23.67 9.66l125.33 125.34Q371-637.67 371-624q0 13.67-9.67 23.33-9.66 9.67-23.66 9.67T314-600.67ZM480-80q-24.33 0-42.17-17.83Q420-115.67 420-140q0-24.33 17.83-42.17Q455.67-200 480-200q24.33 0 42.17 17.83Q540-164.33 540-140q0 24.33-17.83 42.17Q504.33-80 480-80Zm0-680q-24.33 0-42.17-17.83Q420-795.67 420-820q0-24.33 17.83-42.17Q455.67-880 480-880q24.33 0 42.17 17.83Q540-844.33 540-820q0 24.33-17.83 42.17Q504.33-760 480-760Zm119.33 112 126-125.33q9.67-9.67 23.17-9.5 13.5.16 23.5 10.16 9.67 9.67 9.67 23.67 0 14-9.67 23.67L646.33-599.67q-10 10-23.5 9.67-13.5-.33-23.5-10.33-9.66-10-9.83-23.84-.17-13.83 9.83-23.83Zm126 458.67-126-125.34q-9.66-9.66-9.33-23.33.33-13.67 10-23.33 9.67-9.67 23.67-9.67 14 0 23.66 9.67L772.67-236q9.66 9.67 9.66 23.33 0 13.67-9.66 23.34-9.67 9.66-23.67 9.66-14 0-23.67-9.66ZM820-420q-24.33 0-42.17-17.83Q760-455.67 760-480q0-24.33 17.83-42.17Q795.67-540 820-540q24.33 0 42.17 17.83Q880-504.33 880-480q0 24.33-17.83 42.17Q844.33-420 820-420Z"/></svg>
